X:1
T:Title
%%score { ( 1 2 ) | ( 3 4 ) }
L:1/8
Q:1/4=100
M:6/8
K:Bb
V:1 treble nm="Grand Piano"
V:2 treble 
V:3 bass 
V:4 bass 
V:1
 B3 z3 | G6 | c3 z3 | A6 | d3 z3 | z [=EG][EG] E-[E-A][EB] | [df]3 [Ae]3 |[M:5/8] B-B- B3 |] %8
w: Robert~Harkness||||||||
V:2
 z FF ADA | z DD z DD | z GG BGB | z EE z FG | z ^FF ded | c3 .[B,G]3 | z [FB][FB] z FF | %7
[M:5/8] z DE D2 |] %8
V:3
 z DD [A,B,D][D,B,][A,B,D] | z B,B, z B,B, | z EE [B,CE][G,CE][B,CE] | z CC[K:bass] z C[=E,_D] | %4
 z [A,D][K:treble][A,D] [G,=B,F][G,CG][G,B,F] | z B,B, z A,G, | z DD z CC |[M:5/8] z F,G, F,2 |] %8
V:4
 B,3 z3 | G,3 G,,3 | C3 z3 | A,3[K:bass] .F,3 | D,3[K:treble] z3 | C,3 C,3 | F,3 F,3 | %7
[M:5/8] B,,-B,,- B,,3 |] %8

